src/icons/logos/cloudflare.svg

<svg width="1087" height="220" viewBox="0 0 1087 220" fill="none" xmlns="http://www.w3.org/2000/svg">
    <path d="M1080.97 148.7C1077.57 148.7 1074.87 146 1074.87 142.6C1074.87 139.3 1077.57 136.5 1080.97 136.5C1084.27 136.5 1087.07 139.2 1087.07 142.6C1087.07 146 1084.27 148.7 1080.97 148.7ZM1080.97 137.7C1078.27 137.7 1076.07 139.9 1076.07 142.6C1076.07 145.3 1078.27 147.5 1080.97 147.5C1083.67 147.5 1085.87 145.3 1085.87 142.6C1085.87 139.9 1083.67 137.7 1080.97 137.7ZM1084.07 145.8H1082.67L1081.47 143.5H1079.87V145.8H1078.57V139.1H1081.77C1083.17 139.1 1084.07 140 1084.07 141.3C1084.07 142.3 1083.47 143 1082.67 143.3L1084.07 145.8ZM1081.67 142.3C1082.17 142.3 1082.67 142 1082.67 141.3C1082.67 140.5 1082.27 140.3 1081.67 140.3H1079.67V142.3H1081.67Z" fill="currentColor"/>
    <path d="M445.474 135.9H461.074V178.4H488.174V192H445.474V135.9Z" fill="currentColor"/>
    <path d="M504.274 164.1V164C504.274 147.9 517.274 134.8 534.574 134.8C551.874 134.8 564.674 147.7 564.674 163.8V164C564.674 180.1 551.674 193.2 534.374 193.2C517.174 193.1 504.274 180.2 504.274 164.1ZM548.874 164.1V164C548.874 155.9 543.074 148.9 534.474 148.9C525.974 148.9 520.274 155.8 520.274 163.9V164.1C520.274 172.2 526.074 179.2 534.574 179.2C543.174 179.1 548.874 172.2 548.874 164.1Z" fill="currentColor"/>
    <path d="M583.774 167.4V135.9H599.574V167.1C599.574 175.2 603.674 179 609.874 179C616.074 179 620.174 175.3 620.174 167.5V135.9H635.974V167C635.974 185.1 625.674 193 609.674 193C593.774 193.1 583.774 185 583.774 167.4Z" fill="currentColor"/>
    <path d="M659.774 135.9H681.474C701.474 135.9 713.174 147.4 713.174 163.6V163.8C713.174 180 701.374 192 681.174 192H659.874L659.774 135.9ZM681.674 178.2C690.974 178.2 697.174 173.1 697.174 164V163.8C697.174 154.8 690.974 149.6 681.674 149.6H675.374V178.1L681.674 178.2Z" fill="currentColor"/>
    <path d="M735.674 135.9H780.574V149.6H751.174V159.1H777.774V172H751.174V192H735.674V135.9Z" fill="currentColor"/>
    <path d="M802.174 135.9H817.674V178.4H844.874V192H802.174V135.9Z" fill="currentColor"/>
    <path d="M885.474 135.5H900.474L924.374 192H907.674L903.574 182H881.974L877.974 192H861.674L885.474 135.5ZM899.174 169.9L892.974 154L886.674 169.9H899.174Z" fill="currentColor"/>
    <path d="M944.374 135.9H970.874C979.474 135.9 985.374 138.1 989.174 142C992.474 145.2 994.174 149.5 994.174 155.1V155.3C994.174 163.9 989.574 169.6 982.674 172.5L996.074 192.1H978.074L966.774 175.1H959.974V192.1H944.474L944.374 135.9ZM970.174 162.9C975.474 162.9 978.474 160.3 978.474 156.3V156C978.474 151.6 975.274 149.4 970.074 149.4H959.874V162.9H970.174Z" fill="currentColor"/>
    <path d="M1016.57 135.9H1061.67V149.2H1031.97V157.6H1058.87V169.9H1031.97V178.8H1062.07V192H1016.57V135.9Z" fill="currentColor"/>
    <path d="M411.474 170.7C409.274 175.6 404.674 179.1 398.674 179.1C390.174 179.1 384.374 172 384.374 164V163.8C384.374 155.7 390.074 148.8 398.574 148.8C404.974 148.8 409.874 152.7 411.874 158.1H428.274C425.674 144.7 413.874 134.8 398.674 134.8C381.374 134.8 368.374 147.9 368.374 164V164.2C368.374 180.3 381.174 193.2 398.474 193.2C413.274 193.2 424.874 183.6 427.874 170.8L411.474 170.7Z" fill="currentColor"/>
    <path d="M313.574 130.6L270.674 106L263.274 102.8L87.7744 104.1V193.1L313.574 193.2V130.6Z" fill="white"/>
    <path d="M235.474 185C237.574 177.8 236.774 171.2 233.274 166.3C230.074 161.8 224.674 159.2 218.174 158.9L95.0744 157.3C94.2744 157.3 93.5744 156.9 93.1744 156.3C92.7744 155.7 92.6744 154.9 92.8744 154.1C93.2744 152.9 94.4744 152 95.7744 151.9L219.974 150.3C234.674 149.6 250.674 137.7 256.274 123.1L263.374 104.6C263.674 103.8 263.774 103 263.574 102.2C255.574 66 223.274 39 184.674 39C149.074 39 118.874 62 108.074 93.9C101.074 88.7 92.1744 85.9 82.5744 86.8C65.4744 88.5 51.7744 102.2 50.0744 119.3C49.6744 123.7 49.9744 128 50.9744 132C23.0744 132.8 0.774414 155.6 0.774414 183.7C0.774414 186.2 0.974414 188.7 1.27441 191.2C1.47441 192.4 2.47441 193.3 3.67441 193.3H230.874C232.174 193.3 233.374 192.4 233.774 191.1L235.474 185Z" fill="currentColor"/>
    <path d="M274.674 105.9C273.574 105.9 272.374 105.9 271.274 106C270.474 106 269.774 106.6 269.474 107.4L264.674 124.1C262.574 131.3 263.374 137.9 266.874 142.8C270.074 147.3 275.474 149.9 281.974 150.2L308.174 151.8C308.974 151.8 309.674 152.2 310.074 152.8C310.474 153.4 310.574 154.3 310.374 155C309.974 156.2 308.774 157.1 307.474 157.2L280.174 158.8C265.374 159.5 249.474 171.4 243.874 186L241.874 191.1C241.474 192.1 242.174 193.1 243.274 193.1H337.074C338.174 193.1 339.174 192.4 339.474 191.3C341.074 185.5 341.974 179.4 341.974 173.1C341.974 136 311.874 105.9 274.674 105.9Z" fill="currentColor"/>
</svg>

<svg xmlns="http://www.w3.org/2000/svg" width="1087" height="220" fill="none">
    <path fill="currentColor"
        d="M1080.97 148.7c-3.4 0-6.1-2.7-6.1-6.1 0-3.3 2.7-6.1 6.1-6.1 3.3 0 6.1 2.7 6.1 6.1 0 3.4-2.8 6.1-6.1 6.1Zm0-11c-2.7 0-4.9 2.2-4.9 4.9s2.2 4.9 4.9 4.9 4.9-2.2 4.9-4.9-2.2-4.9-4.9-4.9Zm3.1 8.1h-1.4l-1.2-2.3h-1.6v2.3h-1.3v-6.7h3.2c1.4 0 2.3.9 2.3 2.2 0 1-.6 1.7-1.4 2l1.4 2.5Zm-2.4-3.5c.5 0 1-.3 1-1 0-.8-.4-1-1-1h-2v2h2ZM445.474 135.9h15.6v42.5h27.1V192h-42.7v-56.1ZM504.274 164.1v-.1c0-16.1 13-29.2 30.3-29.2s30.1 12.9 30.1 29v.2c0 16.1-13 29.2-30.3 29.2-17.2-.1-30.1-13-30.1-29.1Zm44.6 0v-.1c0-8.1-5.8-15.1-14.4-15.1-8.5 0-14.2 6.9-14.2 15v.2c0 8.1 5.8 15.1 14.3 15.1 8.6-.1 14.3-7 14.3-15.1ZM583.774 167.4v-31.5h15.8v31.2c0 8.1 4.1 11.9 10.3 11.9 6.2 0 10.3-3.7 10.3-11.5v-31.6h15.8V167c0 18.1-10.3 26-26.3 26-15.9.1-25.9-8-25.9-25.6ZM659.774 135.9h21.7c20 0 31.7 11.5 31.7 27.7v.2c0 16.2-11.8 28.2-32 28.2h-21.3l-.1-56.1Zm21.9 42.3c9.3 0 15.5-5.1 15.5-14.2v-.2c0-9-6.2-14.2-15.5-14.2h-6.3v28.5l6.3.1ZM735.674 135.9h44.9v13.7h-29.4v9.5h26.6V172h-26.6v20h-15.5v-56.1ZM802.174 135.9h15.5v42.5h27.2V192h-42.7v-56.1ZM885.474 135.5h15l23.9 56.5h-16.7l-4.1-10h-21.6l-4 10h-16.3l23.8-56.5Zm13.7 34.4-6.2-15.9-6.3 15.9h12.5ZM944.374 135.9h26.5c8.6 0 14.5 2.2 18.3 6.1 3.3 3.2 5 7.5 5 13.1v.2c0 8.6-4.6 14.3-11.5 17.2l13.4 19.6h-18l-11.3-17h-6.8v17h-15.5l-.1-56.2Zm25.8 27c5.3 0 8.3-2.6 8.3-6.6v-.3c0-4.4-3.2-6.6-8.4-6.6h-10.2v13.5h10.3ZM1016.57 135.9h45.1v13.3h-29.7v8.4h26.9v12.3h-26.9v8.9h30.1V192h-45.5v-56.1ZM411.474 170.7c-2.2 4.9-6.8 8.4-12.8 8.4-8.5 0-14.3-7.1-14.3-15.1v-.2c0-8.1 5.7-15 14.2-15 6.4 0 11.3 3.9 13.3 9.3h16.4c-2.6-13.4-14.4-23.3-29.6-23.3-17.3 0-30.3 13.1-30.3 29.2v.2c0 16.1 12.8 29 30.1 29 14.8 0 26.4-9.6 29.4-22.4l-16.4-.1Z" />
    <path fill="#fff" d="m313.574 130.6-42.9-24.6-7.4-3.2-175.5 1.3v89l225.8.1v-62.6Z" />
    <path fill="currentColor"
        d="M235.474 185c2.1-7.2 1.3-13.8-2.2-18.7-3.2-4.5-8.6-7.1-15.1-7.4l-123.1-1.6c-.8 0-1.5-.4-1.9-1-.4-.6-.5-1.4-.3-2.2.4-1.2 1.6-2.1 2.9-2.2l124.2-1.6c14.7-.7 30.7-12.6 36.3-27.2l7.1-18.5c.3-.8.4-1.6.2-2.4-8-36.2-40.3-63.2-78.9-63.2-35.6 0-65.8 23-76.6 54.9-7-5.2-15.9-8-25.5-7.1-17.1 1.7-30.8 15.4-32.5 32.5-.4 4.4-.1 8.7.9 12.7-27.9.8-50.2 23.6-50.2 51.7 0 2.5.2 5 .5 7.5.2 1.2 1.2 2.1 2.4 2.1h227.2c1.3 0 2.5-.9 2.9-2.2l1.7-6.1ZM274.674 105.9c-1.1 0-2.3 0-3.4.1-.8 0-1.5.6-1.8 1.4l-4.8 16.7c-2.1 7.2-1.3 13.8 2.2 18.7 3.2 4.5 8.6 7.1 15.1 7.4l26.2 1.6c.8 0 1.5.4 1.9 1 .4.6.5 1.5.3 2.2-.4 1.2-1.6 2.1-2.9 2.2l-27.3 1.6c-14.8.7-30.7 12.6-36.3 27.2l-2 5.1c-.4 1 .3 2 1.4 2h93.8c1.1 0 2.1-.7 2.4-1.8 1.6-5.8 2.5-11.9 2.5-18.2 0-37.1-30.1-67.2-67.3-67.2Z" />
</svg>
